X: 25575
T: Mark's
R: jig
M: 6/8
K: Gmajor
D|GAB dBA|GAB g2e|GAB dgd|BAA A2B/A/|
GAB dBA|GAB g2e|GBd gdB|AGF G2A|
BBB g2e|dBB B2A|BBB g2d|BAA A2B/A/|
GAB dBA|GAB g2a|bag edB|AGF G2|

